images/colourcopy.svg

<svg width="145" height="21" viewBox="0 0 145 21" fill="none" xmlns="http://www.w3.org/2000/svg">
<g id="logo/type/colour copy">
<g id="Group 2">
<g id="Fill 51">
<path fill-rule="evenodd" clip-rule="evenodd" d="M29.8356 9.80665C32.2491 9.80665 33.7842 8.54318 33.7842 6.59173V6.53693C33.7842 4.4773 32.3039 3.35086 29.8068 3.35086H24.8977V9.80665H29.8356ZM21.5254 1.97778C21.5254 1.01576 22.2655 0.274414 23.2261 0.274414H30.0835C32.497 0.274414 34.3892 0.988347 35.6233 2.19702C36.6385 3.24125 37.2131 4.66913 37.2131 6.3451V6.39991C37.2131 9.47636 35.4318 11.3456 32.8527 12.1418L36.5277 16.7845C36.8574 17.1971 37.0763 17.5533 37.0763 18.0754C37.0763 19.0086 36.2814 19.6418 35.4577 19.6418C34.6902 19.6418 34.1962 19.2841 33.8132 18.762L29.1489 12.8009H24.8979V17.9658C24.8979 18.899 24.1592 19.6418 23.2261 19.6418C22.2655 19.6418 21.5254 18.899 21.5254 17.9658V1.97778Z" fill="#0D1D3B"/>
<path fill-rule="evenodd" clip-rule="evenodd" d="M29.8356 9.80665C32.2491 9.80665 33.7842 8.54318 33.7842 6.59173V6.53693C33.7842 4.4773 32.3039 3.35086 29.8068 3.35086H24.8977V9.80665H29.8356ZM21.5254 1.97778C21.5254 1.01576 22.2655 0.274414 23.2261 0.274414H30.0835C32.497 0.274414 34.3892 0.988347 35.6233 2.19702C36.6385 3.24125 37.2131 4.66913 37.2131 6.3451V6.39991C37.2131 9.47636 35.4318 11.3456 32.8527 12.1418L36.5277 16.7845C36.8574 17.1971 37.0763 17.5533 37.0763 18.0754C37.0763 19.0086 36.2814 19.6418 35.4577 19.6418C34.6902 19.6418 34.1962 19.2841 33.8132 18.762L29.1489 12.8009H24.8979V17.9658C24.8979 18.899 24.1592 19.6418 23.2261 19.6418C22.2655 19.6418 21.5254 18.899 21.5254 17.9658V1.97778Z" fill="#0D1D3B"/>
</g>
<g id="Fill 52">
<path fill-rule="evenodd" clip-rule="evenodd" d="M44.291 1.81268C44.291 0.879505 45.0326 0.136719 45.9931 0.136719C46.9249 0.136719 47.665 0.879505 47.665 1.81268V17.9651C47.665 18.8998 46.9249 19.6411 45.9931 19.6411C45.0326 19.6411 44.291 18.8998 44.291 17.9651V1.81268Z" fill="#0D1D3B"/>
<path fill-rule="evenodd" clip-rule="evenodd" d="M44.291 1.81268C44.291 0.879505 45.0326 0.136719 45.9931 0.136719C46.9249 0.136719 47.665 0.879505 47.665 1.81268V17.9651C47.665 18.8998 46.9249 19.6411 45.9931 19.6411C45.0326 19.6411 44.291 18.8998 44.291 17.9651V1.81268Z" fill="#0D1D3B"/>
</g>
<g id="Fill 53">
<path fill-rule="evenodd" clip-rule="evenodd" d="M61.1041 18.405L54.3849 2.58144C54.2754 2.3348 54.1919 2.08816 54.1919 1.78529C54.1919 0.879505 54.9336 0.136719 55.894 0.136719C56.771 0.136719 57.347 0.631435 57.6206 1.34538L63.1619 15.219L68.7838 1.23576C69.0027 0.658833 69.606 0.136719 70.4024 0.136719C71.3341 0.136719 72.0757 0.852107 72.0757 1.75788C72.0757 2.00451 71.9937 2.28 71.9116 2.47182L65.1636 18.405C64.8065 19.2574 64.1771 19.7796 63.2166 19.7796H63.0237C62.092 19.7796 61.4612 19.2574 61.1041 18.405" fill="#0D1D3B"/>
<path fill-rule="evenodd" clip-rule="evenodd" d="M61.1041 18.405L54.3849 2.58144C54.2754 2.3348 54.1919 2.08816 54.1919 1.78529C54.1919 0.879505 54.9336 0.136719 55.894 0.136719C56.771 0.136719 57.347 0.631435 57.6206 1.34538L63.1619 15.219L68.7838 1.23576C69.0027 0.658833 69.606 0.136719 70.4024 0.136719C71.3341 0.136719 72.0757 0.852107 72.0757 1.75788C72.0757 2.00451 71.9937 2.28 71.9116 2.47182L65.1636 18.405C64.8065 19.2574 64.1771 19.7796 63.2166 19.7796H63.0237C62.092 19.7796 61.4612 19.2574 61.1041 18.405" fill="#0D1D3B"/>
</g>
<g id="Fill 54">
<path fill-rule="evenodd" clip-rule="evenodd" d="M78.5786 1.81268C78.5786 0.879505 79.3189 0.136719 80.2793 0.136719C81.211 0.136719 81.9526 0.879505 81.9526 1.81268V17.9651C81.9526 18.8998 81.211 19.6411 80.2793 19.6411C79.3189 19.6411 78.5786 18.8998 78.5786 17.9651V1.81268Z" fill="#0D1D3B"/>
<path fill-rule="evenodd" clip-rule="evenodd" d="M78.5786 1.81268C78.5786 0.879505 79.3189 0.136719 80.2793 0.136719C81.211 0.136719 81.9526 0.879505 81.9526 1.81268V17.9651C81.9526 18.8998 81.211 19.6411 80.2793 19.6411C79.3189 19.6411 78.5786 18.8998 78.5786 17.9651V1.81268Z" fill="#0D1D3B"/>
</g>
<g id="Fill 55">
<path fill-rule="evenodd" clip-rule="evenodd" d="M94.5408 3.40567H89.8779C88.9995 3.40567 88.3154 2.69172 88.3154 1.84076C88.3154 0.988357 88.9995 0.274414 89.8779 0.274414H102.632C103.482 0.274414 104.169 0.988357 104.169 1.84076C104.169 2.69172 103.482 3.40567 102.632 3.40567H97.9421V17.9658C97.9421 18.899 97.1732 19.6418 96.2429 19.6418C95.3083 19.6418 94.5408 18.899 94.5408 17.9658V3.40567Z" fill="#0D1D3B"/>
<path fill-rule="evenodd" clip-rule="evenodd" d="M94.5408 3.40567H89.8779C88.9995 3.40567 88.3154 2.69172 88.3154 1.84076C88.3154 0.988357 88.9995 0.274414 89.8779 0.274414H102.632C103.482 0.274414 104.169 0.988357 104.169 1.84076C104.169 2.69172 103.482 3.40567 102.632 3.40567H97.9421V17.9658C97.9421 18.899 97.1732 19.6418 96.2429 19.6418C95.3083 19.6418 94.5408 18.899 94.5408 17.9658V3.40567Z" fill="#0D1D3B"/>
</g>
<g id="Fill 56">
<path fill-rule="evenodd" clip-rule="evenodd" d="M119.061 11.8673L115.687 4.09328L112.313 11.8673H119.061ZM106.499 17.3063L113.632 1.37308C114.015 0.522125 114.702 0 115.662 0H115.826C116.785 0 117.443 0.522125 117.828 1.37308L124.959 17.3063C125.096 17.5529 125.152 17.801 125.152 18.0203C125.152 18.9275 124.465 19.6414 123.561 19.6414C122.764 19.6414 122.216 19.1741 121.913 18.4602L120.352 14.8616H111.027L109.408 18.5698C109.133 19.2578 108.557 19.6414 107.844 19.6414C106.967 19.6414 106.28 18.9549 106.28 18.0751C106.28 17.8284 106.364 17.5803 106.499 17.3063V17.3063Z" fill="#0D1D3B"/>
<path fill-rule="evenodd" clip-rule="evenodd" d="M119.061 11.8673L115.687 4.09328L112.313 11.8673H119.061ZM106.499 17.3063L113.632 1.37308C114.015 0.522125 114.702 0 115.662 0H115.826C116.785 0 117.443 0.522125 117.828 1.37308L124.959 17.3063C125.096 17.5529 125.152 17.801 125.152 18.0203C125.152 18.9275 124.465 19.6414 123.561 19.6414C122.764 19.6414 122.216 19.1741 121.913 18.4602L120.352 14.8616H111.027L109.408 18.5698C109.133 19.2578 108.557 19.6414 107.844 19.6414C106.967 19.6414 106.28 18.9549 106.28 18.0751C106.28 17.8284 106.364 17.5803 106.499 17.3063V17.3063Z" fill="#0D1D3B"/>
</g>
<g id="Fill 50">
<path fill-rule="evenodd" clip-rule="evenodd" d="M7.75611 10.274C10.3064 10.274 11.8976 8.8461 11.8976 6.83985V6.78503C11.8976 4.53359 10.279 3.35234 7.75611 3.35234H3.83344V10.274H7.75611ZM0.460938 1.97779C0.460938 1.01721 1.19976 0.274414 2.16018 0.274414H8.02974C12.527 0.274414 15.3264 2.82876 15.3264 6.7028V6.75761C15.3264 11.0701 11.8689 13.323 7.6467 13.323H3.8335V17.9658C3.8335 18.899 3.09334 19.6418 2.16018 19.6418C1.19976 19.6418 0.460938 18.899 0.460938 17.9658V1.97779Z" fill="#0D1D3B"/>
<path fill-rule="evenodd" clip-rule="evenodd" d="M7.75611 10.274C10.3064 10.274 11.8976 8.8461 11.8976 6.83985V6.78503C11.8976 4.53359 10.279 3.35234 7.75611 3.35234H3.83344V10.274H7.75611ZM0.460938 1.97779C0.460938 1.01721 1.19976 0.274414 2.16018 0.274414H8.02974C12.527 0.274414 15.3264 2.82876 15.3264 6.7028V6.75761C15.3264 11.0701 11.8689 13.323 7.6467 13.323H3.8335V17.9658C3.8335 18.899 3.09334 19.6418 2.16018 19.6418C1.19976 19.6418 0.460938 18.899 0.460938 17.9658V1.97779Z" fill="#0D1D3B"/>
</g>
<g id="Fill 57">
<path fill-rule="evenodd" clip-rule="evenodd" d="M137.11 9.80665C139.525 9.80665 141.06 8.54318 141.06 6.59173V6.53693C141.06 4.4773 139.58 3.35086 137.083 3.35086H132.174V9.80665H137.11ZM128.8 1.97778C128.8 1.01576 129.54 0.274414 130.5 0.274414H137.358C139.771 0.274414 141.664 0.988347 142.898 2.19702C143.913 3.24125 144.489 4.66913 144.489 6.3451V6.39991C144.489 9.47636 142.706 11.3456 140.129 12.1418L143.802 16.7845C144.132 17.1971 144.351 17.5533 144.351 18.0754C144.351 19.0086 143.557 19.6418 142.732 19.6418C141.965 19.6418 141.471 19.2841 141.088 18.762L136.425 12.8009H132.174V17.9658C132.174 18.899 131.434 19.6418 130.5 19.6418C129.54 19.6418 128.8 18.899 128.8 17.9658V1.97778Z" fill="#0D1D3B"/>
<path fill-rule="evenodd" clip-rule="evenodd" d="M137.11 9.80665C139.525 9.80665 141.06 8.54318 141.06 6.59173V6.53693C141.06 4.4773 139.58 3.35086 137.083 3.35086H132.174V9.80665H137.11ZM128.8 1.97778C128.8 1.01576 129.54 0.274414 130.5 0.274414H137.358C139.771 0.274414 141.664 0.988347 142.898 2.19702C143.913 3.24125 144.489 4.66913 144.489 6.3451V6.39991C144.489 9.47636 142.706 11.3456 140.129 12.1418L143.802 16.7845C144.132 17.1971 144.351 17.5533 144.351 18.0754C144.351 19.0086 143.557 19.6418 142.732 19.6418C141.965 19.6418 141.471 19.2841 141.088 18.762L136.425 12.8009H132.174V17.9658C132.174 18.899 131.434 19.6418 130.5 19.6418C129.54 19.6418 128.8 18.899 128.8 17.9658V1.97778Z" fill="#0D1D3B"/>
</g>
</g>
</g>
</svg>

<svg xmlns="http://www.w3.org/2000/svg" width="145" height="21" fill="none" viewBox="0 0 145 21"><g fill="#0d1d3b" fill-rule="evenodd" clip-rule="evenodd"><path d="M29.836 9.807c2.413 0 3.948-1.264 3.948-3.215v-.055c0-2.06-1.48-3.186-3.977-3.186h-4.91v6.456zm-8.31-7.83c0-.961.74-1.703 1.7-1.703h6.858c2.413 0 4.305.714 5.54 1.923 1.014 1.044 1.59 2.472 1.59 4.148V6.4c0 3.076-1.782 4.946-4.361 5.742l3.675 4.643c.33.412.548.768.548 1.29 0 .934-.795 1.567-1.618 1.567-.768 0-1.262-.358-1.645-.88l-4.664-5.961h-4.251v5.165c0 .933-.739 1.676-1.672 1.676-.96 0-1.7-.743-1.7-1.676z"/><path d="M29.836 9.807c2.413 0 3.948-1.264 3.948-3.215v-.055c0-2.06-1.48-3.186-3.977-3.186h-4.91v6.456zm-8.31-7.83c0-.961.74-1.703 1.7-1.703h6.858c2.413 0 4.305.714 5.54 1.923 1.014 1.044 1.59 2.472 1.59 4.148V6.4c0 3.076-1.782 4.946-4.361 5.742l3.675 4.643c.33.412.548.768.548 1.29 0 .934-.795 1.567-1.618 1.567-.768 0-1.262-.358-1.645-.88l-4.664-5.961h-4.251v5.165c0 .933-.739 1.676-1.672 1.676-.96 0-1.7-.743-1.7-1.676zM44.291 1.813c0-.933.742-1.676 1.702-1.676.932 0 1.672.743 1.672 1.676v16.152c0 .935-.74 1.676-1.672 1.676-.96 0-1.702-.741-1.702-1.676z"/><path d="M44.291 1.813c0-.933.742-1.676 1.702-1.676.932 0 1.672.743 1.672 1.676v16.152c0 .935-.74 1.676-1.672 1.676-.96 0-1.702-.741-1.702-1.676zM61.104 18.405l-6.72-15.824c-.109-.246-.192-.493-.192-.796 0-.905.742-1.648 1.702-1.648.877 0 1.453.494 1.727 1.208l5.54 13.874 5.623-13.983a1.74 1.74 0 0 1 1.618-1.1c.932 0 1.674.716 1.674 1.622 0 .247-.082.522-.164.714l-6.748 15.933c-.358.852-.987 1.375-1.947 1.375h-.193c-.932 0-1.563-.523-1.92-1.375"/><path d="m61.104 18.405-6.72-15.824c-.109-.246-.192-.493-.192-.796 0-.905.742-1.648 1.702-1.648.877 0 1.453.494 1.727 1.208l5.54 13.874 5.623-13.983a1.74 1.74 0 0 1 1.618-1.1c.932 0 1.674.716 1.674 1.622 0 .247-.082.522-.164.714l-6.748 15.933c-.358.852-.987 1.375-1.947 1.375h-.193c-.932 0-1.563-.523-1.92-1.375M78.579 1.813c0-.933.74-1.676 1.7-1.676.932 0 1.674.743 1.674 1.676v16.152c0 .935-.742 1.676-1.674 1.676-.96 0-1.7-.741-1.7-1.676z"/><path d="M78.579 1.813c0-.933.74-1.676 1.7-1.676.932 0 1.674.743 1.674 1.676v16.152c0 .935-.742 1.676-1.674 1.676-.96 0-1.7-.741-1.7-1.676zM94.54 3.406h-4.662a1.56 1.56 0 0 1-1.563-1.565c0-.853.684-1.567 1.563-1.567h12.754c.85 0 1.537.714 1.537 1.567 0 .85-.687 1.565-1.537 1.565h-4.69v14.56c0 .933-.769 1.676-1.7 1.676-.934 0-1.701-.743-1.701-1.676z"/><path d="M94.54 3.406h-4.662a1.56 1.56 0 0 1-1.563-1.565c0-.853.684-1.567 1.563-1.567h12.754c.85 0 1.537.714 1.537 1.567 0 .85-.687 1.565-1.537 1.565h-4.69v14.56c0 .933-.769 1.676-1.7 1.676-.934 0-1.701-.743-1.701-1.676zM119.061 11.867l-3.374-7.774-3.374 7.774zm-12.562 5.44 7.133-15.934c.383-.85 1.07-1.373 2.03-1.373h.164c.959 0 1.617.522 2.002 1.373l7.131 15.933c.137.247.193.495.193.714 0 .907-.687 1.621-1.591 1.621-.797 0-1.345-.467-1.648-1.18l-1.561-3.6h-9.325l-1.619 3.709c-.275.688-.851 1.071-1.564 1.071a1.55 1.55 0 0 1-1.564-1.566c0-.247.084-.495.219-.769"/><path d="m119.061 11.867-3.374-7.774-3.374 7.774zm-12.562 5.44 7.133-15.934c.383-.85 1.07-1.373 2.03-1.373h.164c.959 0 1.617.522 2.002 1.373l7.131 15.933c.137.247.193.495.193.714 0 .907-.687 1.621-1.591 1.621-.797 0-1.345-.467-1.648-1.18l-1.561-3.6h-9.325l-1.619 3.709c-.275.688-.851 1.071-1.564 1.071a1.55 1.55 0 0 1-1.564-1.566c0-.247.084-.495.219-.769M7.756 10.274c2.55 0 4.142-1.428 4.142-3.434v-.055c0-2.251-1.619-3.433-4.142-3.433H3.833v6.922zM.461 1.978c0-.96.739-1.704 1.7-1.704H8.03c4.497 0 7.296 2.555 7.296 6.429v.055c0 4.312-3.457 6.565-7.68 6.565H3.835v4.643c0 .933-.74 1.676-1.674 1.676-.96 0-1.7-.743-1.7-1.676z"/><path d="M7.756 10.274c2.55 0 4.142-1.428 4.142-3.434v-.055c0-2.251-1.619-3.433-4.142-3.433H3.833v6.922zM.461 1.978c0-.96.739-1.704 1.7-1.704H8.03c4.497 0 7.296 2.555 7.296 6.429v.055c0 4.312-3.457 6.565-7.68 6.565H3.835v4.643c0 .933-.74 1.676-1.674 1.676-.96 0-1.7-.743-1.7-1.676zM137.11 9.807c2.415 0 3.95-1.264 3.95-3.215v-.055c0-2.06-1.48-3.186-3.977-3.186h-4.909v6.456zm-8.31-7.83c0-.961.74-1.703 1.7-1.703h6.858c2.413 0 4.306.714 5.54 1.923 1.015 1.044 1.591 2.472 1.591 4.148V6.4c0 3.076-1.783 4.946-4.36 5.742l3.673 4.643c.33.412.549.768.549 1.29 0 .934-.794 1.567-1.619 1.567-.767 0-1.261-.358-1.644-.88l-4.663-5.961h-4.251v5.165c0 .933-.74 1.676-1.674 1.676-.96 0-1.7-.743-1.7-1.676z"/><path d="M137.11 9.807c2.415 0 3.95-1.264 3.95-3.215v-.055c0-2.06-1.48-3.186-3.977-3.186h-4.909v6.456zm-8.31-7.83c0-.961.74-1.703 1.7-1.703h6.858c2.413 0 4.306.714 5.54 1.923 1.015 1.044 1.591 2.472 1.591 4.148V6.4c0 3.076-1.783 4.946-4.36 5.742l3.673 4.643c.33.412.549.768.549 1.29 0 .934-.794 1.567-1.619 1.567-.767 0-1.261-.358-1.644-.88l-4.663-5.961h-4.251v5.165c0 .933-.74 1.676-1.674 1.676-.96 0-1.7-.743-1.7-1.676z"/></g></svg>
